src/actions/24/align-vertical-baseline.svg

<svg xmlns="http://www.w3.org/2000/svg" viewBox="0 0 24 24">
  <defs id="defs3051">
    <style type="text/css" id="current-color-scheme">
      .ColorScheme-Text {
        color:#363636;
      }
      </style>
  </defs>
 <path style="fill:currentColor;fill-opacity:1;stroke:none" 
     d="M 7.0957031 7 C 7.3652431 8.7782 8.0627644 10.648115 9.6464844 12.353516 C 8.9262522 13.259947 8.0171878 14.140522 6.8417969 15 L 4 15 L 4 16 L 5.3261719 16 C 4.8277197 16.299036 4.2999909 16.596455 3.71875 16.890625 L 4.3144531 18 C 5.5587446 17.370262 6.6250222 16.69833 7.5546875 16 L 20 16 L 20 15 L 8.7714844 15 C 11.590253 12.459983 12.822478 9.6319595 13.71875 7 L 12.361328 7 C 11.849378 8.5034 11.25818 9.9317935 10.375 11.308594 C 9.11027 9.8922935 8.5182725 8.5122 8.2890625 7 L 7.0957031 7 z M 17.136719 7 C 15.963989 7.025 15.064716 7.2175469 14.410156 7.4980469 L 14.777344 8.7597656 C 15.090984 8.6576656 16.277196 8.3007812 16.972656 8.3007812 L 17.068359 8.3007812 C 18.036549 8.3387814 18.105469 8.6694656 18.105469 9.4472656 L 18.105469 9.7539062 L 17.599609 9.8320312 C 15.254119 10.150831 14 10.418463 14 12.101562 C 14 13.274564 14.913578 14 16.236328 14 C 17.149968 14 17.749661 13.642803 18.363281 13.158203 L 18.554688 13.873047 L 20 13.873047 L 20 9.1542969 C 20 7.7134969 18.937151 7 17.300781 7 L 17.136719 7 z M 18.105469 10.75 L 18.105469 12.318359 C 17.600939 12.637159 17.219003 12.865234 16.564453 12.865234 C 15.978083 12.865234 15.691406 12.521609 15.691406 12.037109 C 15.691406 11.119109 16.549579 10.964519 17.599609 10.824219 L 18.105469 10.75 z "
     class="ColorScheme-Text"
     />
</svg>

<svg xmlns="http://www.w3.org/2000/svg" viewBox="0 0 24 24">
    <path d="M7.096 7c.27 1.778.967 3.648 2.55 5.354-.72.906-1.629 1.787-2.804 2.646H4v1h1.326c-.498.299-1.026.596-1.607.89L4.314 18a21.61 21.61 0 0 0 3.24-2H20v-1H8.771c2.82-2.54 4.051-5.368 4.948-8H12.36c-.512 1.503-1.103 2.932-1.986 4.309C9.11 9.892 8.518 8.512 8.289 7H7.096zm10.04 0c-1.172.025-2.071.218-2.726.498l.367 1.262c.314-.102 1.5-.46 2.196-.46h.095c.969.039 1.037.37 1.037 1.147v.307l-.505.078c-2.346.319-3.6.586-3.6 2.27 0 1.173.914 1.898 2.236 1.898.914 0 1.514-.357 2.127-.842l.192.715H20V9.154C20 7.714 18.937 7 17.3 7h-.163zm.97 3.75v1.568c-.505.32-.887.547-1.542.547-.586 0-.873-.343-.873-.828 0-.918.859-1.072 1.909-1.213l.505-.074z" style="fill:currentColor;fill-opacity:1;stroke:none;color:#050505;opacity:.7"/>
</svg>
